X: 11795
T: Ella
R: reel
M: 4/4
K: Aminor
|:"Am" EA (3AAA cA (3AAA|eA (3AAA cA (3AAA|EA (3AAA cA (3AAA|efec B4|
EA (3AAA cA (3AAA|eA (3AAA cA (3AAA|e2 ef ec (3ccc|BcBE A4:|
|:eA (3AAA EA (3AAA|efed eA (3AAA|dG (3GGG DG (3GGG|dedc BcBG|
eA (3AAA EA (3AAA|efed eA (3AAA|e2 ef ec (3ccc|BcBE A4:|

